X: 2933
T: Barrel Rafferty's
R: jig
M: 6/8
K: Gmajor
|:ged BcB|GED G2A|Bee dBG|BAA ABD
ged BcB|GED G2A|Bee dBG|BGG G3:|
|:egg ged|BdB d3|e2a aga|bag e2a
ged BcB|GED G2A|Bee dBG|BGG G3:|

